X:1
T:Put John On The Islan'
M:4/4
L:1/8
K:G
 G3- B B2- G2| BB B3/2 G/2 B G3| G3- B B2- G2| G/2G/2 G G3/2 G/2 E D3|\
 GA AG AB G2| G/2G/2 G G3/2 G/2 E D2 G| GA AG BA G2| G/2G/2 G G3/2 G/2 E D3|\
